X:1
T:The Well-Tempered Clavier Book II - XIX
T:BWV 888    (A = 415 Hz)
T:J. S. Bach
%%score { ( 1 2 4 ) | 3 }
L:1/8
Q:1/4=132
M:12/8
K:A
V:1 treble 
V:2 treble 
V:4 treble 
V:3 bass 
V:1
"^Allegro""^Praeludium" EAG AcB c6- | cBA Bdc d6- | dcB ced edc dfe | f3- fga b e2- efg | %4
 a d2- ded cde dec | B3 e3- efe e/4d/4e/4d/4e/4d/4e/4d/4 c | d3- ddc d3- d2 b | efe ^def B2 c AGA | %8
 G2 A GF/E/F bef ecd | c2 A =g3- gcd c^AB | e6- edc d2 e | c6- cBA B2 c | A3- A2 d G2 c d3- | %13
 d^Bc f3- f^d^e a3- | agf gab ^ecf- fge | f2 c f3- fed e3- | eGA d3- dcB c3- | cBA B3- BGA- A2 A | %18
{A} G3- G2 z z6 | EAG AcB c2 B ced | e/f/ =g2- g2 A eAB AF=G | F2 z z3 DA=G AcB | c6- cB^A Bdc | %23
 d12- | def =g3- gfe f3- | fed e3- e2 d c2 d- | dcB ced e3- e2 f | Be^d e3- e=dc dfe | %28
 f2 e d3- d2 c F2 B- | BEA- ABG A3 z3 | A,ED E=GF G3- GAC | DFE FA=G Adc dfe | fag a3- a6 | z12 | %34
[M:4/4][Q:1/4=100]"^Fuga" z8 | z4 z E/F/ G/F/E/G/ | F/A/G- G/B/A- A/c/B/A/ B/F/G/A/ | %37
 G/B/A/G/ A/E/F/=G/ F/A/^G/F/ G/^D/E/F/ | z A/B/ c/B/A/c/ B/d/c- c/e/d- | %39
 d/f/e/d/ e/B/c/d/ c/d/e/f/ e/a/g/f/ | g/f/e/^d/ e2- e>d e>d | e>c d2- d>^B c2- | %42
 c>^A B2- B/^E/F/G/ =A/G/F/A/ | G/B/A- A/c/B- B/d/c/B/ c/G/A/B/ | A4- A/c/B/A/ B/F/G/A/ | %45
 G4- G>G c>^d | ^B z ^d2- d/B/c/d/ c/f/e/d/ | e4- e/=g/f/e/ f/c/d/e/ | d4- d/f/e/d/ e/B/c/d/ | %49
 c/d/c/B/ A/G/F/E/ D/F/G/B/ E/G/^A/c/ | B2- B>B A2- A>A | G2- G>=G F2 z2 | F2 z2 z4 | %53
 z/ c/d/e/ f/e/d/f/ e/=g/f- f/a/g- | g/b/a/=g/ a/e/f/g/ f4- | f/f/e/^d/ e/B/c/=d/ c4- | %56
 c/=c/B/^A/ B/F/G/=A/ G>A B>^c | d>^d e>=f ^f4- | f/^d/e/f/ e/a/g/f/ g/f/e/d/ e/B/c/=d/ | %59
 d/A/A/B/ A/d/c/B/ c/B/A/G/ A/E/F/=G/ | F/A/B/c/ d2- d/G/A/B/ c/B/A/c/ | %61
 B/d/c- c/e/d- d/f/e/d/ e/B/c/d/ | c>B A/4G/4A/4G/4A/4G/4A/ !fermata!A4 |] %63
V:2
 z6 A,ED EGF | G6 GFE FAG | A12- | ABc d3- dcB c3- | cBA B3- B2 A G2 A- | AGF GBA B3 B2 F- | %6
 FB^A B3- B=AG AcB | c2 B A3 A2 G F3- | F^DE- E2 D[I:staff +1] E2[I:staff -1] z z3 | %9
 A[I:staff +1]EF ECD C[I:staff -1] z z z3 | CGF GB^A B6- | BED EGF G6- | GF^E F3- F E2- EFG | %13
 A3- AGF G3- G^EF | B6- B2 A G3 | A3- A2 A G3- GAG | F3- F2 F E3- E2 E | D3- D2 D C3 =CB,C | %18
 B,3 z z E BEF ECD | C2 B, C2 D EAG AcB | c3- c2 z z6 | A,DC DFE F6- | FED E=GF G6- | %23
 GFE F^A^G AGF GBA | B3- Bcd e A2- ABc | d =G2- GAG FGA GAF | E3 A3- ABA =GAF | =G3- GFG F3- F2 A | %28
 F^GA- AGB E3 D3 | C3 B,3[I:staff +1] A,E,F, E,C,D, | %30
 C,2[I:staff -1] z z3 EA,B,[I:staff +1] A,F,=G, | F,D,C, D,F,E, F,[I:staff -1]FE Fdc | f3- fed e6 | %33
 x12 |[M:4/4] x8 | x8 | x8 | x8 | E3 F G>G A>A | B2 z G A[I:staff +1]GA[I:staff -1]B | %40
 B2- B/A/G/B/ A/F/B- B/G/c- | cF- F>F E2- E>E | ^D2- D>=D C3 ^D | ^E>E F>F G2 z2 | %44
 z/ G/F/^E/ F/C/^D/=E/ D4- | D/G,/C/^D/ E/D/C/E/ D/F/E- E/G/F- | %46
 F/A/G/F/ G/^D/E/F/ E>[I:staff +1]G, ^A,^B, | C/^D/C/^B,/ C/G,/^A,/=B,/ A,[I:staff -1] z z2 | %48
 z/ c/B/^A/ B/F/G/=A/ G4 | A z z2 z4 | z z/ F/ =G2- G>^E F2- | F>^D E2- E=D/C/ B,/^A,/G,/F,/ | %52
 D/C/B,/^A,/ B,/E/D/C/ D/d/c/B/ c/G/A/B/ | A3 B c>c d>^d | e4- e/e/d/c/ d/A/B/c/ | %55
 B4- B/B/A/G/ A/E/F/=G/ | F4- F/B,/E/F/ G/F/E/=G/ | F/A/G- G/B/A- A/c/B/A/ B/F/G/A/ | %58
 G/A/[I:staff +1]G/F/ G/^D/E/F/ E[I:staff -1] z z2 | %59
 z/[I:staff +1] D/C/B,/ C/G,/A,/B,/ A,[I:staff -1] z z2 | z2 z/ A/G/F/ E2- E>F | G>G A>A B2 z2 | %62
 z/ A/G/F/ E/D/C/B,/ C4 |] %63
V:3
 A,2 E, C,2 E, A,,2 B,, C,2 A,, | E,2 E,, E,,2 E, E,2 D, C,2 B,, | A,,A,G, A,CB, CB,A, B,DC | %3
 D2 C B,2 A, G,2 z A,2 z | F,2 z G,2 z A,2 C, B,,2 A,, | E,,E,^D, E,G,F, G,3- G,B,^A, | %6
 B,DC DFE F3- FAG | A2 G F2 E ^DB,E- E2 D | EB,C B,G,A, G,3- G,G,E, | A,3- A,2 B, A,E,F, E,C,D, | %10
 C,3 z z F,, B,,F,E, F,A,G, | A,3 z2 A,, ^E,,D,C, ^D,F,^E, | F,A,G, A,CB, C6- | C12 | %14
 D3- DCB, C3- CCC, | F,A,G, A,CB, C3- CB,C | DB,C B,G,A, G,E,F, =G,A,G, | %17
 F,D,E, =F,=G,F, E,F,E, ^D,E,D, | E,B,,C, B,,G,,A,, G,,3- G,,2 E,, | A,,3 z3 A,,3 z3 | %20
 A,E,F, E,C,D, C,3- C,2 A,, | D,2 A,, F,,2 A,, D,,2 E,, F,,2 D,, | A,,2 A, A,2 A,, E,2 E E2 ^A, | %23
 B,B,,C, D,C,B,, F,E,D, E,=G,F, | =G,2 F, E,2 D, C,2 z D,2 z | B,,2 z C,2 z D,2 F,, E,,2 D,, | %26
 A,,A,G, A,CB, C3- C2 ^D | E,=G,F, G,B,^A, B,3- B,DC | D2 C B,2 A, G,E,A,- A,F,G, | %29
 A,2 F, D,2 E, A,,6- | A,,12- | A,,6- A,,2 A, A,2 A,, | A,,6- A,,C,E, A,3 | z12 | %34
[M:4/4] z A,/B,/ C/B,/A,/C/ B,/D/C- C/E/D- | D/F/E/D/ E/B,/C/D/ CA,B,C | DB,/E/ CF/C/ ^D/B,/ E2 D | %37
 E>B, CA, D>A, B,G, | C/D/C/B,/ A,>A, E>E, F,>F | G2 z E A,B,C^D | %40
 EE,/F,/ G,/F,/E,/G,/ F,/A,/G,- G,/B,/A,- | A,/=C/B,/A,/ B,/F,/G,/A,/ G,/B,/A,/G,/ A,/E,/F,/=G,/ | %42
 F,/A,/G,/F,/ G,/^D,/^E,/F,/ E,/C,/D,/E,/ F,>F, | C>C, D,>^D, E,>G, ^E,C, | %44
 F,>G, A,F, B,,>C, ^D,B,, | E,>^D, C,>C ^B,/G,/C/=B,/ A,/G,/A,/F,/ | G,>^D, ^B,,G,, C,4- | %47
 C, z z2 z z/ C/ ^A,F, | B,>F, D,B,, E,>B,, G,,E,, | %49
 A,,,/E,,/A,,/B,,/ C,/B,,/A,,/C,/ B,,/D,/C,- C,/E,/D,- | %50
 D,/F,/E,/^D,/ E,/B,,/C,/=D,/ C,/E,/D,/C,/ D,/A,,/B,,/C,/ | %51
 B,,/D,/C,/B,,/ C,/G,,/^A,,/B,,/ A,,/F,,/G,,/A,,/ G,,/C,/B,,/A,,/ | %52
 B,,/C,/D,/E,/ D,/=G,/F,/E,/ F,/^G,/A,/B,/ A,/D/C/B,/ | C/A,/B,/C/ D>D, A,>^A, B,>B,, | %54
 =C,>=C ^C>A, D/C/B,/A,/ B,/F,/G,/A,/ | G,/A,/G,/F,/ G,/B,/A,/G,/ A,/G,/F,/E,/ F,/C,/^D,/E,/ | %56
 ^D,/E,/D,/C,/ D,/F,/E,/D,/ E,>E,, E,>^A,, | B,,>B, C>C, D,>D ^D>^D, | %58
 E, z/ z z2 F,/G,/A,/ G,/B,/A,/G,/ | A,2 z2 z/ B,,/C,/D,/ C,/E,/D,/C,/ | %60
 D,/C,/B,,/A,,/ B,,/F,,/G,,/A,,/ G,,/E,,/F,,/G,,/ A,,/B,,/C,/A,,/ | %61
 E,>E,, F,,>F, G,/A,/G,/F,/ E,/D,/C,/B,,/ | A,,D, E,2 !fermata!A,,4 |] %63
V:4
 x12 | x12 | x12 | x12 | x12 | x12 | x12 | x12 | x12 | x12 | x12 | x12 | x12 | x12 | x12 | x12 | %16
 x12 | x12 | x12 | x12 | x12 | x12 | x12 | x12 | x12 | x12 | x12 | x12 | x12 | x12 | x12 | x12 | %32
 d3- dcB c6 | x12 |[M:4/4] x8 | x8 | x8 | x8 | x8 | x8 | x8 | x8 | x8 | x8 | x8 | x8 | x8 | x8 | %48
 x8 | x8 | x8 | x8 | x8 | x8 | x8 | x8 | x8 | x8 | x8 | x8 | x8 | x8 | x8 |] %63

